bernoullicharts/arctan_x_two-coin_special_case__mean.svg

<?xml version="1.0" encoding="utf-8" standalone="no"?>
<!DOCTYPE svg PUBLIC "-//W3C//DTD SVG 1.1//EN"
  "http://www.w3.org/Graphics/SVG/1.1/DTD/svg11.dtd">
<!-- Created with matplotlib (https://matplotlib.org/) -->
<svg height="345.6pt" version="1.1" viewBox="0 0 460.8 345.6" width="460.8pt" xmlns="http://www.w3.org/2000/svg" xmlns:xlink="http://www.w3.org/1999/xlink">
 <defs>
  <style type="text/css">
*{stroke-linecap:butt;stroke-linejoin:round;}
  </style>
 </defs>
 <g id="figure_1">
  <g id="patch_1">
   <path d="M 0 345.6 
L 460.8 345.6 
L 460.8 0 
L 0 0 
z
" style="fill:#ffffff;"/>
  </g>
  <g id="axes_1">
   <g id="patch_2">
    <path d="M 57.6 307.584 
L 414.72 307.584 
L 414.72 41.472 
L 57.6 41.472 
z
" style="fill:#ffffff;"/>
   </g>
   <g id="matplotlib.axis_1">
    <g id="xtick_1">
     <g id="line2d_1">
      <defs>
       <path d="M 0 0 
L 0 3.5 
" id="mbafdeaca75" style="stroke:#000000;stroke-width:0.8;"/>
      </defs>
      <g>
       <use style="stroke:#000000;stroke-width:0.8;" x="73.800255" xlink:href="#mbafdeaca75" y="307.584"/>
      </g>
     </g>
     <g id="text_1">
      <text style="font-family:DejaVu Sans;font-size:10px;font-style:normal;font-weight:normal;text-anchor:middle;" transform="rotate(-0, 73.800255, 322.182437)" x="73.800255" y="322.182437">0.0</text>
     </g>
    </g>
    <g id="xtick_2">
     <g id="line2d_2">
      <g>
       <use style="stroke:#000000;stroke-width:0.8;" x="138.744153" xlink:href="#mbafdeaca75" y="307.584"/>
      </g>
     </g>
     <g id="text_2">
      <text style="font-family:DejaVu Sans;font-size:10px;font-style:normal;font-weight:normal;text-anchor:middle;" transform="rotate(-0, 138.744153, 322.182437)" x="138.744153" y="322.182437">0.2</text>
     </g>
    </g>
    <g id="xtick_3">
     <g id="line2d_3">
      <g>
       <use style="stroke:#000000;stroke-width:0.8;" x="203.688051" xlink:href="#mbafdeaca75" y="307.584"/>
      </g>
     </g>
     <g id="text_3">
      <text style="font-family:DejaVu Sans;font-size:10px;font-style:normal;font-weight:normal;text-anchor:middle;" transform="rotate(-0, 203.688051, 322.182437)" x="203.688051" y="322.182437">0.4</text>
     </g>
    </g>
    <g id="xtick_4">
     <g id="line2d_4">
      <g>
       <use style="stroke:#000000;stroke-width:0.8;" x="268.631949" xlink:href="#mbafdeaca75" y="307.584"/>
      </g>
     </g>
     <g id="text_4">
      <text style="font-family:DejaVu Sans;font-size:10px;font-style:normal;font-weight:normal;text-anchor:middle;" transform="rotate(-0, 268.631949, 322.182437)" x="268.631949" y="322.182437">0.6</text>
     </g>
    </g>
    <g id="xtick_5">
     <g id="line2d_5">
      <g>
       <use style="stroke:#000000;stroke-width:0.8;" x="333.575847" xlink:href="#mbafdeaca75" y="307.584"/>
      </g>
     </g>
     <g id="text_5">
      <text style="font-family:DejaVu Sans;font-size:10px;font-style:normal;font-weight:normal;text-anchor:middle;" transform="rotate(-0, 333.575847, 322.182437)" x="333.575847" y="322.182437">0.8</text>
     </g>
    </g>
    <g id="xtick_6">
     <g id="line2d_6">
      <g>
       <use style="stroke:#000000;stroke-width:0.8;" x="398.519745" xlink:href="#mbafdeaca75" y="307.584"/>
      </g>
     </g>
     <g id="text_6">
      <text style="font-family:DejaVu Sans;font-size:10px;font-style:normal;font-weight:normal;text-anchor:middle;" transform="rotate(-0, 398.519745, 322.182437)" x="398.519745" y="322.182437">1.0</text>
     </g>
    </g>
    <g id="text_7">
     <text style="font-family:DejaVu Sans;font-size:10px;font-style:normal;font-weight:normal;text-anchor:middle;" transform="rotate(-0, 236.16, 335.860562)" x="236.16" y="335.860562">Input Coin's Heads Probability (λ)</text>
    </g>
   </g>
   <g id="matplotlib.axis_2">
    <g id="ytick_1">
     <g id="line2d_7">
      <defs>
       <path d="M 0 0 
L -3.5 0 
" id="m40d987cd2d" style="stroke:#000000;stroke-width:0.8;"/>
      </defs>
      <g>
       <use style="stroke:#000000;stroke-width:0.8;" x="57.6" xlink:href="#m40d987cd2d" y="295.488"/>
      </g>
     </g>
     <g id="text_8">
      <text style="font-family:DejaVu Sans;font-size:10px;font-style:normal;font-weight:normal;text-anchor:end;" transform="rotate(-0, 50.6, 299.287219)" x="50.6" y="299.287219">0.0</text>
     </g>
    </g>
    <g id="ytick_2">
     <g id="line2d_8">
      <g>
       <use style="stroke:#000000;stroke-width:0.8;" x="57.6" xlink:href="#m40d987cd2d" y="265.840941"/>
      </g>
     </g>
     <g id="text_9">
      <text style="font-family:DejaVu Sans;font-size:10px;font-style:normal;font-weight:normal;text-anchor:end;" transform="rotate(-0, 50.6, 269.64016)" x="50.6" y="269.64016">0.1</text>
     </g>
    </g>
    <g id="ytick_3">
     <g id="line2d_9">
      <g>
       <use style="stroke:#000000;stroke-width:0.8;" x="57.6" xlink:href="#m40d987cd2d" y="236.193882"/>
      </g>
     </g>
     <g id="text_10">
      <text style="font-family:DejaVu Sans;font-size:10px;font-style:normal;font-weight:normal;text-anchor:end;" transform="rotate(-0, 50.6, 239.993101)" x="50.6" y="239.993101">0.2</text>
     </g>
    </g>
    <g id="ytick_4">
     <g id="line2d_10">
      <g>
       <use style="stroke:#000000;stroke-width:0.8;" x="57.6" xlink:href="#m40d987cd2d" y="206.546824"/>
      </g>
     </g>
     <g id="text_11">
      <text style="font-family:DejaVu Sans;font-size:10px;font-style:normal;font-weight:normal;text-anchor:end;" transform="rotate(-0, 50.6, 210.346042)" x="50.6" y="210.346042">0.3</text>
     </g>
    </g>
    <g id="ytick_5">
     <g id="line2d_11">
      <g>
       <use style="stroke:#000000;stroke-width:0.8;" x="57.6" xlink:href="#m40d987cd2d" y="176.899765"/>
      </g>
     </g>
     <g id="text_12">
      <text style="font-family:DejaVu Sans;font-size:10px;font-style:normal;font-weight:normal;text-anchor:end;" transform="rotate(-0, 50.6, 180.698983)" x="50.6" y="180.698983">0.4</text>
     </g>
    </g>
    <g id="ytick_6">
     <g id="line2d_12">
      <g>
       <use style="stroke:#000000;stroke-width:0.8;" x="57.6" xlink:href="#m40d987cd2d" y="147.252706"/>
      </g>
     </g>
     <g id="text_13">
      <text style="font-family:DejaVu Sans;font-size:10px;font-style:normal;font-weight:normal;text-anchor:end;" transform="rotate(-0, 50.6, 151.051925)" x="50.6" y="151.051925">0.5</text>
     </g>
    </g>
    <g id="ytick_7">
     <g id="line2d_13">
      <g>
       <use style="stroke:#000000;stroke-width:0.8;" x="57.6" xlink:href="#m40d987cd2d" y="117.605647"/>
      </g>
     </g>
     <g id="text_14">
      <text style="font-family:DejaVu Sans;font-size:10px;font-style:normal;font-weight:normal;text-anchor:end;" transform="rotate(-0, 50.6, 121.404866)" x="50.6" y="121.404866">0.6</text>
     </g>
    </g>
    <g id="ytick_8">
     <g id="line2d_14">
      <g>
       <use style="stroke:#000000;stroke-width:0.8;" x="57.6" xlink:href="#m40d987cd2d" y="87.958588"/>
      </g>
     </g>
     <g id="text_15">
      <text style="font-family:DejaVu Sans;font-size:10px;font-style:normal;font-weight:normal;text-anchor:end;" transform="rotate(-0, 50.6, 91.757807)" x="50.6" y="91.757807">0.7</text>
     </g>
    </g>
    <g id="ytick_9">
     <g id="line2d_15">
      <g>
       <use style="stroke:#000000;stroke-width:0.8;" x="57.6" xlink:href="#m40d987cd2d" y="58.311529"/>
      </g>
     </g>
     <g id="text_16">
      <text style="font-family:DejaVu Sans;font-size:10px;font-style:normal;font-weight:normal;text-anchor:end;" transform="rotate(-0, 50.6, 62.110748)" x="50.6" y="62.110748">0.8</text>
     </g>
    </g>
    <g id="text_17">
     <text style="font-family:DejaVu Sans;font-size:10px;font-style:normal;font-weight:normal;text-anchor:middle;" transform="rotate(-90, 28.617187, 174.528)" x="28.617187" y="174.528">Simulated Mean / Function Value</text>
    </g>
   </g>
   <g id="line2d_16">
    <path clip-path="url(#p7c02741758)" d="M 73.832727 295.458353 
L 77.112066 292.464404 
L 80.391405 289.471072 
L 83.670744 286.478967 
L 86.950083 283.488695 
L 90.229421 280.500865 
L 93.50876 277.516078 
L 96.788099 274.534935 
L 100.067438 271.55803 
L 103.346777 268.585952 
L 106.626116 265.619287 
L 109.905455 262.658611 
L 113.184793 259.704496 
L 116.464132 256.757503 
L 119.743471 253.818188 
L 123.02281 250.887095 
L 126.302149 247.964762 
L 129.581488 245.051713 
L 132.860826 242.148465 
L 136.140165 239.255522 
L 139.419504 236.373376 
L 142.698843 233.502511 
L 145.978182 230.643394 
L 149.257521 227.796481 
L 152.53686 224.962218 
L 155.816198 222.141033 
L 159.095537 219.333345 
L 162.374876 216.539556 
L 165.654215 213.760055 
L 168.933554 210.995219 
L 172.212893 208.245409 
L 175.492231 205.510971 
L 178.77157 202.792238 
L 182.050909 200.08953 
L 185.330248 197.403149 
L 188.609587 194.733385 
L 191.888926 192.080514 
L 195.168264 189.444797 
L 198.447603 186.826479 
L 201.726942 184.225795 
L 205.006281 181.642961 
L 208.28562 179.078185 
L 211.564959 176.531655 
L 214.844298 174.003551 
L 218.123636 171.494036 
L 221.402975 169.003262 
L 224.682314 166.531368 
L 227.961653 164.078479 
L 231.240992 161.644709 
L 234.520331 159.230159 
L 237.799669 156.83492 
L 241.079008 154.459069 
L 244.358347 152.102673 
L 247.637686 149.765788 
L 250.917025 147.448461 
L 254.196364 145.150725 
L 257.475702 142.872607 
L 260.755041 140.614121 
L 264.03438 138.375274 
L 267.313719 136.156062 
L 270.593058 133.956474 
L 273.872397 131.77649 
L 277.151736 129.61608 
L 280.431074 127.475211 
L 283.710413 125.353836 
L 286.989752 123.251907 
L 290.269091 121.169364 
L 293.54843 119.106144 
L 296.827769 117.062176 
L 300.107107 115.037384 
L 303.386446 113.031685 
L 306.665785 111.044991 
L 309.945124 109.077209 
L 313.224463 107.128242 
L 316.503802 105.197987 
L 319.78314 103.286338 
L 323.062479 101.393182 
L 326.341818 99.518406 
L 329.621157 97.66189 
L 332.900496 95.823513 
L 336.179835 94.003149 
L 339.459174 92.20067 
L 342.738512 90.415945 
L 346.017851 88.648842 
L 349.29719 86.899222 
L 352.576529 85.16695 
L 355.855868 83.451883 
L 359.135207 81.753881 
L 362.414545 80.072799 
L 365.693884 78.408493 
L 368.973223 76.760816 
L 372.252562 75.129621 
L 375.531901 73.514757 
L 378.81124 71.916077 
L 382.090579 70.333429 
L 385.369917 68.766662 
L 388.649256 67.215625 
L 391.928595 65.680165 
L 395.207934 64.160131 
L 398.487273 62.655369 
" style="fill:none;stroke:#1f77b4;stroke-linecap:square;stroke-width:1.5;"/>
   </g>
   <g id="line2d_17">
    <path clip-path="url(#p7c02741758)" d="M 73.832727 295.488 
L 77.112066 291.337412 
L 80.391405 288.965647 
L 83.670744 286.000941 
L 86.950083 286.593882 
L 90.229421 283.036235 
L 93.50876 279.478588 
L 96.788099 271.177412 
L 100.067438 274.142118 
L 103.346777 267.619765 
L 106.626116 263.469176 
L 109.905455 262.876235 
L 113.184793 257.539765 
L 116.464132 261.690353 
L 119.743471 256.946824 
L 123.02281 243.309176 
L 126.302149 243.309176 
L 129.581488 242.123294 
L 132.860826 238.565647 
L 136.140165 240.937412 
L 139.419504 240.344471 
L 142.698843 233.229176 
L 145.978182 225.520941 
L 149.257521 240.344471 
L 152.53686 229.078588 
L 155.816198 216.626824 
L 159.095537 224.928 
L 162.374876 214.848 
L 165.654215 217.219765 
L 168.933554 211.290353 
L 172.212893 204.768 
L 175.492231 201.803294 
L 178.77157 208.325647 
L 182.050909 195.873882 
L 185.330248 185.793882 
L 188.609587 196.466824 
L 191.888926 185.200941 
L 195.168264 178.678588 
L 198.447603 188.758588 
L 201.726942 182.236235 
L 205.006281 186.979765 
L 208.28562 176.899765 
L 211.564959 177.492706 
L 214.844298 177.492706 
L 218.123636 169.191529 
L 221.402975 161.483294 
L 224.682314 165.040941 
L 227.961653 170.970353 
L 231.240992 175.713882 
L 234.520331 157.925647 
L 237.799669 140.730353 
L 241.079008 153.775059 
L 244.358347 159.704471 
L 247.637686 153.775059 
L 250.917025 151.996235 
L 254.196364 146.066824 
L 257.475702 141.916235 
L 260.755041 130.650353 
L 264.03438 129.464471 
L 267.313719 140.730353 
L 270.593058 130.057412 
L 273.872397 135.393882 
L 277.151736 121.756235 
L 280.431074 134.208 
L 283.710413 131.836235 
L 286.989752 125.906824 
L 290.269091 119.384471 
L 293.54843 105.153882 
L 296.827769 115.233882 
L 300.107107 114.048 
L 303.386446 106.932706 
L 306.665785 109.897412 
L 309.945124 108.118588 
L 313.224463 118.198588 
L 316.503802 98.038588 
L 319.78314 106.932706 
L 323.062479 106.932706 
L 326.341818 85.586824 
L 329.621157 114.640941 
L 332.900496 113.455059 
L 336.179835 96.259765 
L 339.459174 89.737412 
L 342.738512 89.144471 
L 346.017851 87.365647 
L 349.29719 95.073882 
L 352.576529 82.029176 
L 355.855868 82.622118 
L 359.135207 84.400941 
L 362.414545 82.029176 
L 365.693884 77.285647 
L 368.973223 67.205647 
L 372.252562 80.250353 
L 375.531901 68.391529 
L 378.81124 68.391529 
L 382.090579 65.426824 
L 385.369917 67.205647 
L 388.649256 66.612706 
L 391.928595 73.728 
L 395.207934 67.205647 
L 398.487273 53.568 
" style="fill:none;stroke:#ff7f0e;stroke-linecap:square;stroke-width:1.5;"/>
   </g>
   <g id="patch_3">
    <path d="M 57.6 307.584 
L 57.6 41.472 
" style="fill:none;stroke:#000000;stroke-linecap:square;stroke-linejoin:miter;stroke-width:0.8;"/>
   </g>
   <g id="patch_4">
    <path d="M 414.72 307.584 
L 414.72 41.472 
" style="fill:none;stroke:#000000;stroke-linecap:square;stroke-linejoin:miter;stroke-width:0.8;"/>
   </g>
   <g id="patch_5">
    <path d="M 57.6 307.584 
L 414.72 307.584 
" style="fill:none;stroke:#000000;stroke-linecap:square;stroke-linejoin:miter;stroke-width:0.8;"/>
   </g>
   <g id="patch_6">
    <path d="M 57.6 41.472 
L 414.72 41.472 
" style="fill:none;stroke:#000000;stroke-linecap:square;stroke-linejoin:miter;stroke-width:0.8;"/>
   </g>
   <g id="text_18">
    <text style="font-family:DejaVu Sans;font-size:12px;font-style:normal;font-weight:normal;" transform="translate(43.291875 22.034625)">Simulated Mean for arctan(x) (Two-Coin Special Case) Algorithm</text>
    <text style="font-family:DejaVu Sans;font-size:12px;font-style:normal;font-weight:normal;" transform="translate(132.609375 35.472)">(Wasserstein Distances in Legend)</text>
   </g>
   <g id="legend_1">
    <g id="patch_7">
     <path d="M 64.6 78.82825 
L 242.85 78.82825 
Q 244.85 78.82825 244.85 76.82825 
L 244.85 48.472 
Q 244.85 46.472 242.85 46.472 
L 64.6 46.472 
Q 62.6 46.472 62.6 48.472 
L 62.6 76.82825 
Q 62.6 78.82825 64.6 78.82825 
z
" style="fill:#ffffff;opacity:0.8;stroke:#cccccc;stroke-linejoin:miter;"/>
    </g>
    <g id="line2d_18">
     <path d="M 66.6 54.570437 
L 86.6 54.570437 
" style="fill:none;stroke:#1f77b4;stroke-linecap:square;stroke-width:1.5;"/>
    </g>
    <g id="line2d_19"/>
    <g id="text_19">
     <text style="font-family:DejaVu Sans;font-size:10px;font-style:normal;font-weight:normal;text-anchor:start;" transform="rotate(-0, 94.6, 58.070437)" x="94.6" y="58.070437">arctan(x)</text>
    </g>
    <g id="line2d_20">
     <path d="M 66.6 69.248562 
L 86.6 69.248562 
" style="fill:none;stroke:#ff7f0e;stroke-linecap:square;stroke-width:1.5;"/>
    </g>
    <g id="line2d_21"/>
    <g id="text_20">
     <text style="font-family:DejaVu Sans;font-size:10px;font-style:normal;font-weight:normal;text-anchor:start;" transform="rotate(-0, 94.6, 72.748562)" x="94.6" y="72.748562">Simul. Mean (WD=0.006497)</text>
    </g>
   </g>
  </g>
 </g>
 <defs>
  <clipPath id="p7c02741758">
   <rect height="266.112" width="357.12" x="57.6" y="41.472"/>
  </clipPath>
 </defs>
</svg>

<svg height="460.8" viewBox="0 0 460.8 345.6" width="614.4" xmlns="http://www.w3.org/2000/svg" xmlns:xlink="http://www.w3.org/1999/xlink"><defs><style>*{stroke-linecap:butt;stroke-linejoin:round}</style></defs><g id="figure_1"><path d="M0 345.6h460.8V0H0z" fill="#fff" id="patch_1"/><g id="axes_1"><path d="M57.6 307.584h357.12V41.472H57.6z" fill="#fff" id="patch_2"/><g id="matplotlib.axis_1"><g id="xtick_1"><g id="line2d_1"><defs><path d="M0 0v3.5" id="mbafdeaca75" stroke="#000" stroke-width=".8"/></defs><use x="73.8" xlink:href="#mbafdeaca75" y="307.584" stroke="#000" stroke-width=".8"/></g><text x="73.8" y="322.182" font-family="DejaVu Sans" font-size="10" font-weight="400" text-anchor="middle" id="text_1">0.0</text></g><g id="xtick_2"><use x="138.744" xlink:href="#mbafdeaca75" y="307.584" stroke="#000" stroke-width=".8" id="line2d_2"/><text x="138.744" y="322.182" font-family="DejaVu Sans" font-size="10" font-weight="400" text-anchor="middle" id="text_2">0.2</text></g><g id="xtick_3"><use x="203.688" xlink:href="#mbafdeaca75" y="307.584" stroke="#000" stroke-width=".8" id="line2d_3"/><text x="203.688" y="322.182" font-family="DejaVu Sans" font-size="10" font-weight="400" text-anchor="middle" id="text_3">0.4</text></g><g id="xtick_4"><use x="268.632" xlink:href="#mbafdeaca75" y="307.584" stroke="#000" stroke-width=".8" id="line2d_4"/><text x="268.632" y="322.182" font-family="DejaVu Sans" font-size="10" font-weight="400" text-anchor="middle" id="text_4">0.6</text></g><g id="xtick_5"><use x="333.576" xlink:href="#mbafdeaca75" y="307.584" stroke="#000" stroke-width=".8" id="line2d_5"/><text x="333.576" y="322.182" font-family="DejaVu Sans" font-size="10" font-weight="400" text-anchor="middle" id="text_5">0.8</text></g><g id="xtick_6"><use x="398.52" xlink:href="#mbafdeaca75" y="307.584" stroke="#000" stroke-width=".8" id="line2d_6"/><text x="398.52" y="322.182" font-family="DejaVu Sans" font-size="10" font-weight="400" text-anchor="middle" id="text_6">1.0</text></g><text x="236.16" y="335.861" font-family="DejaVu Sans" font-size="10" font-weight="400" text-anchor="middle" id="text_7">Input Coin&apos;s Heads Probability (λ)</text></g><g id="matplotlib.axis_2"><g id="ytick_1"><g id="line2d_7"><defs><path d="M0 0h-3.5" id="m40d987cd2d" stroke="#000" stroke-width=".8"/></defs><use x="57.6" xlink:href="#m40d987cd2d" y="295.488" stroke="#000" stroke-width=".8"/></g><text x="50.6" y="299.287" font-family="DejaVu Sans" font-size="10" font-weight="400" text-anchor="end" id="text_8">0.0</text></g><g id="ytick_2"><use x="57.6" xlink:href="#m40d987cd2d" y="265.841" stroke="#000" stroke-width=".8" id="line2d_8"/><text x="50.6" y="269.64" font-family="DejaVu Sans" font-size="10" font-weight="400" text-anchor="end" id="text_9">0.1</text></g><g id="ytick_3"><use x="57.6" xlink:href="#m40d987cd2d" y="236.194" stroke="#000" stroke-width=".8" id="line2d_9"/><text x="50.6" y="239.993" font-family="DejaVu Sans" font-size="10" font-weight="400" text-anchor="end" id="text_10">0.2</text></g><g id="ytick_4"><use x="57.6" xlink:href="#m40d987cd2d" y="206.547" stroke="#000" stroke-width=".8" id="line2d_10"/><text x="50.6" y="210.346" font-family="DejaVu Sans" font-size="10" font-weight="400" text-anchor="end" id="text_11">0.3</text></g><g id="ytick_5"><use x="57.6" xlink:href="#m40d987cd2d" y="176.9" stroke="#000" stroke-width=".8" id="line2d_11"/><text x="50.6" y="180.699" font-family="DejaVu Sans" font-size="10" font-weight="400" text-anchor="end" id="text_12">0.4</text></g><g id="ytick_6"><use x="57.6" xlink:href="#m40d987cd2d" y="147.253" stroke="#000" stroke-width=".8" id="line2d_12"/><text x="50.6" y="151.052" font-family="DejaVu Sans" font-size="10" font-weight="400" text-anchor="end" id="text_13">0.5</text></g><g id="ytick_7"><use x="57.6" xlink:href="#m40d987cd2d" y="117.606" stroke="#000" stroke-width=".8" id="line2d_13"/><text x="50.6" y="121.405" font-family="DejaVu Sans" font-size="10" font-weight="400" text-anchor="end" id="text_14">0.6</text></g><g id="ytick_8"><use x="57.6" xlink:href="#m40d987cd2d" y="87.959" stroke="#000" stroke-width=".8" id="line2d_14"/><text x="50.6" y="91.758" font-family="DejaVu Sans" font-size="10" font-weight="400" text-anchor="end" id="text_15">0.7</text></g><g id="ytick_9"><use x="57.6" xlink:href="#m40d987cd2d" y="58.312" stroke="#000" stroke-width=".8" id="line2d_15"/><text x="50.6" y="62.111" font-family="DejaVu Sans" font-size="10" font-weight="400" text-anchor="end" id="text_16">0.8</text></g><text transform="rotate(-90 28.617 174.528)" x="28.617" y="174.528" font-family="DejaVu Sans" font-size="10" font-weight="400" text-anchor="middle" id="text_17">Simulated Mean / Function Value</text></g><path clip-path="url(#p7c02741758)" d="M73.833 295.458l3.28-2.994 3.278-2.993 3.28-2.992 3.28-2.99 3.278-2.988 3.28-2.985 3.28-2.981 3.278-2.977 3.28-2.972 3.28-2.967 3.278-2.96 3.28-2.955 3.28-2.946 3.278-2.94 3.28-2.93 3.28-2.923 3.278-2.913 3.28-2.904 3.28-2.892 3.279-2.883 3.279-2.87 3.28-2.86 3.279-2.847 3.279-2.834 3.28-2.821 3.279-2.808 3.279-2.793 3.28-2.78 3.279-2.765 3.279-2.75 3.28-2.734 3.279-2.719 3.279-2.702 3.28-2.687 3.279-2.67 3.279-2.652 3.28-2.636 3.279-2.619 3.279-2.6 3.28-2.583 3.279-2.565 3.279-2.546 3.28-2.528 3.279-2.51 3.279-2.49 3.28-2.473 3.279-2.453 3.279-2.433 3.28-2.415 3.279-2.395 3.279-2.376 3.28-2.356 3.279-2.337 3.279-2.318 3.28-2.297 3.279-2.278 3.279-2.259 3.28-2.239 3.279-2.219 3.28-2.2 3.278-2.18 3.28-2.16 3.28-2.14 3.278-2.122 3.28-2.102 3.28-2.083 3.278-2.063 3.28-2.044 3.28-2.025 3.278-2.005 3.28-1.987 3.28-1.968 3.278-1.949 3.28-1.93 3.28-1.912 3.278-1.893 3.28-1.875 3.28-1.856 3.278-1.838 3.28-1.82 3.28-1.803 3.279-1.785 3.279-1.767 3.28-1.75 3.279-1.732 3.279-1.715 3.28-1.698 3.279-1.681 3.279-1.665 3.28-1.647 3.279-1.631 3.279-1.615 3.28-1.599 3.279-1.583 3.279-1.566 3.28-1.551 3.279-1.536 3.279-1.52 3.28-1.505" fill="none" stroke="#1f77b4" stroke-linecap="square" stroke-width="1.5" id="line2d_16"/><path clip-path="url(#p7c02741758)" d="M73.833 295.488l3.28-4.15 3.278-2.372 3.28-2.965 3.28.593 3.278-3.558 3.28-3.557 3.28-8.302 3.278 2.965 3.28-6.522 3.28-4.15 3.278-.594 3.28-5.336 3.28 4.15 3.278-4.743 3.28-13.638h3.28l3.278-1.186 3.28-3.557 3.28 2.371 3.279-.593 3.279-7.115 3.28-7.708 3.279 14.823 3.279-11.265 3.28-12.452 3.279 8.301 3.279-10.08 3.28 2.372 3.279-5.93 3.279-6.522 3.28-2.965 3.279 6.523 3.279-12.452 3.28-10.08 3.279 10.673 3.279-11.266 3.28-6.522 3.279 10.08 3.279-6.523 3.28 4.744 3.279-10.08 3.279.593h3.28l3.279-8.301 3.279-7.709 3.28 3.558 3.279 5.93 3.279 4.743 3.28-17.788 3.279-17.196 3.279 13.045 3.28 5.93 3.279-5.93 3.279-1.779 3.28-5.93 3.279-4.15 3.279-11.266 3.28-1.186 3.279 11.266 3.28-10.673 3.278 5.337 3.28-13.638 3.28 12.452 3.278-2.372 3.28-5.93 3.28-6.522 3.278-14.23 3.28 10.08 3.28-1.186 3.278-7.115 3.28 2.964 3.28-1.778 3.278 10.08 3.28-20.16 3.28 8.894h3.278l3.28-21.346 3.28 29.054 3.278-1.186 3.28-17.195 3.28-6.523 3.279-.593 3.279-1.778 3.28 7.708 3.279-13.045 3.279.593 3.28 1.779 3.279-2.372 3.279-4.743 3.28-10.08 3.279 13.044 3.279-11.858h3.28l3.279-2.965 3.279 1.779 3.28-.593 3.279 7.115 3.279-6.522 3.28-13.638" fill="none" stroke="#ff7f0e" stroke-linecap="square" stroke-width="1.5" id="line2d_17"/><path d="M57.6 307.584V41.472" fill="none" stroke="#000" stroke-linecap="square" stroke-width=".8" id="patch_3"/><path d="M414.72 307.584V41.472" fill="none" stroke="#000" stroke-linecap="square" stroke-width=".8" id="patch_4"/><path d="M57.6 307.584h357.12" fill="none" stroke="#000" stroke-linecap="square" stroke-width=".8" id="patch_5"/><path d="M57.6 41.472h357.12" fill="none" stroke="#000" stroke-linecap="square" stroke-width=".8" id="patch_6"/><g id="text_18" font-family="DejaVu Sans" font-size="12" font-weight="400"><text transform="translate(43.292 22.035)">Simulated Mean for arctan(x) (Two-Coin Special Case) Algorithm</text><text transform="translate(132.61 35.472)">(Wasserstein Distances in Legend)</text></g><g id="legend_1"><path d="M64.6 78.828h178.25q2 0 2-2V48.472q0-2-2-2H64.6q-2 0-2 2v28.356q0 2 2 2z" fill="#fff" opacity=".8" stroke="#ccc" id="patch_7"/><path d="M66.6 54.57h20" fill="none" stroke="#1f77b4" stroke-linecap="square" stroke-width="1.5" id="line2d_18"/><text x="94.6" y="58.07" font-family="DejaVu Sans" font-size="10" font-weight="400" id="text_19">arctan(x)</text><path d="M66.6 69.249h20" fill="none" stroke="#ff7f0e" stroke-linecap="square" stroke-width="1.5" id="line2d_20"/><text x="94.6" y="72.749" font-family="DejaVu Sans" font-size="10" font-weight="400" id="text_20">Simul. Mean (WD=0.006497)</text></g></g></g><defs><clipPath id="p7c02741758"><path d="M57.6 41.472h357.12v266.112H57.6z"/></clipPath></defs></svg>
